icons/file-symlink-24.svg

<svg width="24" height="24" viewBox="0 0 24 24" xmlns="http://www.w3.org/2000/svg">
  <path fill-rule="evenodd" clip-rule="evenodd" d="M3 3C3 1.89543 3.89543 1 5 1H14.9822C15.5127 1 16.0214 1.21071 16.3964 1.58579L20.4142 5.60355C20.7893 5.97863 21 6.48733 21 7.01777V21C21 22.1046 20.1046 23 19 23H4.75C4.33579 23 4 22.6642 4 22.25C4 21.8358 4.33579 21.5 4.75 21.5H19C19.2761 21.5 19.5 21.2761 19.5 21V8.5H15.5C14.3954 8.5 13.5 7.60457 13.5 6.5V2.5H5C4.72386 2.5 4.5 2.72386 4.5 3V9.25C4.5 9.66421 4.16421 10 3.75 10C3.33579 10 3 9.66421 3 9.25V3ZM15 2.50032V6.5C15 6.77614 15.2239 7 15.5 7H19.4997C19.4952 6.87384 19.4431 6.75379 19.3536 6.66421L15.3358 2.64645C15.2462 2.55687 15.1262 2.5048 15 2.50032ZM9.3083 14.5L7.20385 12.264C6.91996 11.9624 6.93435 11.4877 7.23598 11.2039C7.53761 10.92 8.01227 10.9343 8.29615 11.236L11.5903 14.736C11.8621 15.0248 11.8621 15.4752 11.5903 15.764L8.29615 19.264C8.01227 19.5657 7.53761 19.58 7.23598 19.2962C6.93435 19.0123 6.91996 18.5376 7.20385 18.236L9.3083 16H4.09043C2.65962 16 1.5 17.1594 1.5 18.5899V21.75C1.5 22.1642 1.16421 22.5 0.75 22.5C0.335787 22.5 0 22.1642 0 21.75V18.5899C0 16.3307 1.8315 14.5 4.09043 14.5H9.3083Z"/>
</svg>

<svg xmlns="http://www.w3.org/2000/svg" width="24" height="24" viewBox="0 0 24 24"><path fill-rule="evenodd" d="M3 3a2 2 0 012-2h9.982a2 2 0 011.414.586l4.018 4.018A2 2 0 0121 7.018V21a2 2 0 01-2 2H4.75a.75.75 0 010-1.5H19a.5.5 0 00.5-.5V8.5h-4a2 2 0 01-2-2v-4H5a.5.5 0 00-.5.5v6.25a.75.75 0 01-1.5 0V3zm12-.5v4a.5.5 0 00.5.5h4a.5.5 0 00-.146-.336l-4.018-4.018A.5.5 0 0015 2.5zm-5.692 12l-2.104-2.236a.75.75 0 111.092-1.028l3.294 3.5a.75.75 0 010 1.028l-3.294 3.5a.75.75 0 11-1.092-1.028L9.308 16H4.09a2.59 2.59 0 00-2.59 2.59v3.16a.75.75 0 01-1.5 0v-3.16a4.09 4.09 0 014.09-4.09h5.218z"/></svg>
